static/icons/gallery.svg

<svg xmlns="http://www.w3.org/2000/svg" width="48" height="48" fill="none">
  <path stroke="#7EBBE5" stroke-linecap="round" stroke-linejoin="round" stroke-width="2.8125" d="M34.6546 8.21429c-.5126-1.87943-2.1265-3.237-4.1536-3.38279C28.1276 4.66064 24.6176 4.5 19.8215 4.5c-4.7672 0-8.2624.15879-10.63488.32871-2.37436.169-4.18971 1.98343-4.35871 4.35872-.16993 2.37247-.32779 5.86857-.32779 10.63397 0 4.7961.16157 8.3052.3315 10.6786.14579 2.0271 1.50429 3.6419 3.38279 4.1535"/>
  <path stroke="#7EBBE5" stroke-linecap="round" stroke-linejoin="round" stroke-width="2.8125" d="M13.1861 17.5436c.169-2.3744 1.9835-4.1879 4.3587-4.3578 2.3716-.1709 5.8677-.3287 10.6341-.3287 4.7663 0 8.2615.1587 10.634.3287 2.3752.169 4.1897 1.9834 4.3587 4.3587.1699 2.3725.3287 5.8686.3287 10.634 0 4.7663-.1588 8.2615-.3287 10.6349-.169 2.3744-1.9835 4.1879-4.3587 4.3578-2.3725.1699-5.8686.3287-10.634.3287-4.7664 0-8.2615-.1588-10.635-.3287-2.3743-.169-4.1878-1.9834-4.3578-4.3587-.1708-2.3716-.3287-5.8677-.3287-10.634 0-4.7664.1588-8.2615.3287-10.6349Z"/>
  <path stroke="#7EBBE5" stroke-linecap="round" stroke-linejoin="round" stroke-width="2.8125" d="M43.3572 35.5041c-2.0939-1.963-3.6028-3.2704-4.6503-4.1266-1.2424-1.0167-2.8804-1.1644-4.2185-.272-1.0307.6871-2.4458 1.7364-4.2946 3.3233-2.7486-2.6288-4.6429-4.2807-5.8853-5.2975s-2.8804-1.1635-4.2185-.272c-1.5043 1.0028-3.8285 2.7782-7.1203 5.8667m18.4591-12.5832c0 .7388.2935 1.4473.8159 1.9698.5225.5224 1.231.8159 1.9698.8159.7389 0 1.4474-.2935 1.9698-.8159.5225-.5225.816-1.231.816-1.9698 0-.7388-.2935-1.4474-.816-1.9698-.5224-.5225-1.2309-.8159-1.9698-.8159-.7388 0-1.4473.2934-1.9698.8159-.5224.5224-.8159 1.231-.8159 1.9698Z"/>
</svg>

<svg width="48" height="48" viewBox="0 0 48 48" fill="none" xmlns="http://www.w3.org/2000/svg">
<path d="M34.6546 8.21429C34.142 6.33486 32.5281 4.97729 30.501 4.8315C28.1276 4.66064 24.6176 4.5 19.8215 4.5C15.0543 4.5 11.5591 4.65879 9.18662 4.82871C6.81226 4.99771 4.99691 6.81214 4.82791 9.18743C4.65798 11.5599 4.50012 15.056 4.50012 19.8214C4.50012 24.6175 4.66169 28.1266 4.83162 30.5C4.97741 32.5271 6.33591 34.1419 8.21441 34.6535" stroke="#7EBBE5" stroke-width="2.8125" stroke-linecap="round" stroke-linejoin="round"/>
<path d="M13.1861 17.5436C13.3551 15.1692 15.1696 13.3557 17.5448 13.1858C19.9164 13.0149 23.4125 12.8571 28.1789 12.8571C32.9452 12.8571 36.4404 13.0158 38.8129 13.1858C41.1881 13.3548 43.0026 15.1692 43.1716 17.5445C43.3415 19.917 43.5003 23.4131 43.5003 28.1785C43.5003 32.9448 43.3415 36.44 43.1716 38.8134C43.0026 41.1878 41.1881 43.0013 38.8129 43.1712C36.4404 43.3411 32.9443 43.4999 28.1789 43.4999C23.4125 43.4999 19.9174 43.3411 17.5439 43.1712C15.1696 43.0022 13.3561 41.1878 13.1861 38.8125C13.0153 36.4409 12.8574 32.9448 12.8574 28.1785C12.8574 23.4121 13.0162 19.917 13.1861 17.5436Z" stroke="#7EBBE5" stroke-width="2.8125" stroke-linecap="round" stroke-linejoin="round"/>
<path d="M43.3572 35.5041C41.2633 33.5411 39.7544 32.2337 38.7069 31.3775C37.4645 30.3608 35.8265 30.2131 34.4884 31.1055C33.4577 31.7926 32.0426 32.8419 30.1938 34.4288C27.4452 31.8 25.5509 30.1481 24.3085 29.1313C23.0661 28.1145 21.4281 27.9678 20.09 28.8593C18.5857 29.8621 16.2615 31.6375 12.9697 34.726" stroke="#7EBBE5" stroke-width="2.8125" stroke-linecap="round" stroke-linejoin="round"/>
<path d="M31.4288 22.1428C31.4288 22.8816 31.7223 23.5901 32.2447 24.1126C32.7672 24.635 33.4757 24.9285 34.2145 24.9285C34.9534 24.9285 35.6619 24.635 36.1843 24.1126C36.7068 23.5901 37.0003 22.8816 37.0003 22.1428C37.0003 21.404 36.7068 20.6954 36.1843 20.173C35.6619 19.6505 34.9534 19.3571 34.2145 19.3571C33.4757 19.3571 32.7672 19.6505 32.2447 20.173C31.7223 20.6954 31.4288 21.404 31.4288 22.1428Z" stroke="#7EBBE5" stroke-width="2.8125" stroke-linecap="round" stroke-linejoin="round"/>
</svg>
